X:200
T: DIE LEINEWEBER HABEN EINE SAUBERE ZUNFT
N: Z0199
O: Europa, Mitteleuropa, Deutschland, Greifswald
R: Schiffer -, Handwerker - Lied
M: 2/4
L: 1/8
K: C
G, | CCCC | CCCC | C2B,A, | G,2z2
A,2A,A, | B,2B,2 | C2C2 | C2z
G, | CCCC | CCCC | C2B,A, | G,2z2
A,2A,A, | B,2B,2 | C2C2 | C2z2
G,G,G,G, | G,G,G,G, | C2C2 | C2z2
G,G,G,G, | G,G,G,G, | C2C2 | C2z2
E2EE | F4 | D2D2 | G4
CCCC | DDDD | C2C2 | C2z

